icons/glyphs/glyph-amarok-favorite.svg

<?xml version="1.0" encoding="UTF-8" standalone="no"?><svg height="16" viewBox="0 0 4.2333332 4.2333332" width="16" xmlns="http://www.w3.org/2000/svg"><sodipodi:namedview/><metadata><rdf:RDF><cc:Work><dc:format>image/svg+xml</dc:format><dc:type/><dc:title/></cc:Work></rdf:RDF></metadata><path d="m2.1070768.08898378c-.9174042.004129-1.83254538.19556693-2.04109357.56244524-.4170964.73375678 1.24830627 3.44007208 2.04822817 3.44007208.799922 0 2.4841034-2.6732798 2.0482281-3.44007208-.2179376-.38339609-1.1379587-.56657469-2.0553627-.56244524zm.0065399.69265191.3186793.63914231.7069211.0998846-.50953.5000174.1236666.7033537-.6331968-.3293811-.6308186.334732.1177211-.7045428-.5130975-.49645.7063266-.1052355z" fill="#d0d0d0" stroke-width=".337873"/></svg>

<?xml version="1.0" encoding="UTF-8" standalone="no"?>
<!-- Created with Inkscape (http://www.inkscape.org/) -->

<svg
   xmlns:dc="http://purl.org/dc/elements/1.1/"
   xmlns:cc="http://creativecommons.org/ns#"
   xmlns:rdf="http://www.w3.org/1999/02/22-rdf-syntax-ns#"
   xmlns:svg="http://www.w3.org/2000/svg"
   xmlns="http://www.w3.org/2000/svg"
   xmlns:sodipodi="http://sodipodi.sourceforge.net/DTD/sodipodi-0.dtd"
   xmlns:inkscape="http://www.inkscape.org/namespaces/inkscape"
   width="16"
   height="16"
   viewBox="0 0 4.2333332 4.2333332"
   version="1.1"
   id="svg8"
   inkscape:version="0.92+devel (262af300f2, 2017-08-19, custom)"
   sodipodi:docname="glyph-amarok-favorite.svg">
  <defs
     id="defs2" />
  <sodipodi:namedview
     id="base"
     pagecolor="#002466"
     bordercolor="#ffffff"
     borderopacity="0.38039216"
     inkscape:pageopacity="1"
     inkscape:pageshadow="2"
     inkscape:zoom="35.532116"
     inkscape:cx="8.1420321"
     inkscape:cy="9.6450163"
     inkscape:document-units="px"
     inkscape:current-layer="svg8"
     inkscape:document-rotation="0"
     showgrid="false"
     inkscape:showpageshadow="false"
     borderlayer="true"
     inkscape:window-width="1920"
     inkscape:window-height="1023"
     inkscape:window-x="0"
     inkscape:window-y="28"
     inkscape:window-maximized="1"
     units="px"
     inkscape:snap-intersection-paths="true"
     inkscape:snap-center="true"
     inkscape:snap-page="true"
     inkscape:snap-grids="false"
     inkscape:snap-to-guides="false"
     inkscape:object-paths="true" />
  <metadata
     id="metadata5">
    <rdf:RDF>
      <cc:Work
         rdf:about="">
        <dc:format>image/svg+xml</dc:format>
        <dc:type
           rdf:resource="http://purl.org/dc/dcmitype/StillImage" />
        <dc:title></dc:title>
      </cc:Work>
    </rdf:RDF>
  </metadata>
  <path
     style="fill:#d0d0d0;stroke-width:0.33787283"
     d="M 2.1070768,0.08898378 C 1.1896726,0.09311278 0.27453142,0.28455071 0.06598323,0.65142902 -0.35111317,1.3851858 1.3142895,4.0915011 2.1142114,4.0915011 c 0.799922,0 2.4841034,-2.6732798 2.0482281,-3.44007208 C 3.9445019,0.26803293 3.0244808,0.08485433 2.1070768,0.08898378 Z M 2.1136167,0.78163569 2.432296,1.420778 3.1392171,1.5206626 2.6296871,2.02068 2.7533537,2.7240337 2.1201569,2.3946526 1.4893383,2.7293846 1.6070594,2.0248418 1.0939619,1.5283918 1.8002885,1.4231563 Z"
     id="path811"
     inkscape:connector-curvature="0" />
</svg>
